assets/icons/network/error-filled.svg

<?xml version="1.0" encoding="UTF-8" standalone="no"?>
<svg
   viewBox="0 0 24 24"
   height="24"
   id="svg7384"
   version="1.1"
   width="24"
   sodipodi:docname="error-filled.svg"
   inkscape:version="1.2 (1:1.2.1+202207142221+cd75a1ee6d)"
   xmlns:inkscape="http://www.inkscape.org/namespaces/inkscape"
   xmlns:sodipodi="http://sodipodi.sourceforge.net/DTD/sodipodi-0.dtd"
   xmlns="http://www.w3.org/2000/svg"
   xmlns:svg="http://www.w3.org/2000/svg"
   xmlns:rdf="http://www.w3.org/1999/02/22-rdf-syntax-ns#"
   xmlns:cc="http://creativecommons.org/ns#"
   xmlns:dc="http://purl.org/dc/elements/1.1/">
  <sodipodi:namedview
     id="namedview22"
     pagecolor="#ffffff"
     bordercolor="#666666"
     borderopacity="1.0"
     inkscape:pageshadow="2"
     inkscape:pageopacity="0.0"
     inkscape:pagecheckerboard="0"
     showgrid="true"
     inkscape:zoom="27.999894"
     inkscape:cx="16.357205"
     inkscape:cy="12.250046"
     inkscape:window-width="1920"
     inkscape:window-height="1043"
     inkscape:window-x="0"
     inkscape:window-y="0"
     inkscape:window-maximized="1"
     inkscape:current-layer="svg7384"
     inkscape:showpageshadow="2"
     inkscape:deskcolor="#d1d1d1">
    <inkscape:grid
       type="xygrid"
       id="grid440" />
  </sodipodi:namedview>
  <metadata
     id="metadata20854">
    <rdf:RDF>
      <cc:Work
         rdf:about="">
        <dc:format>image/svg+xml</dc:format>
        <dc:type
           rdf:resource="http://purl.org/dc/dcmitype/StillImage" />
      </cc:Work>
    </rdf:RDF>
  </metadata>
  <defs
     id="defs7386">
    <linearGradient
       id="linearGradient5606"
       inkscape:swatch="solid">
      <stop
         id="stop5608"
         offset="0"
         style="stop-color:#000000;stop-opacity:1;" />
    </linearGradient>
    <linearGradient
       id="linearGradient4526"
       inkscape:swatch="solid">
      <stop
         id="stop4528"
         offset="0"
         style="stop-color:#ffffff;stop-opacity:1;" />
    </linearGradient>
    <linearGradient
       id="linearGradient3600-4"
       inkscape:swatch="gradient">
      <stop
         id="stop3602-7"
         offset="0"
         style="stop-color:#f4f4f4;stop-opacity:1" />
      <stop
         id="stop3604-6"
         offset="1"
         style="stop-color:#dbdbdb;stop-opacity:1" />
    </linearGradient>
  </defs>
  <path
     id="path1572"
     style="fill:#808080;fill-rule:evenodd;stroke:none;stroke-width:2;stroke-linecap:square;stroke-linejoin:round"
     d="M 12 2 A 10 10 0 0 0 2 12 A 10 10 0 0 0 12 22 A 10 10 0 0 0 14.042969 21.763672 A 5.5 5.5 0 0 1 12 17.5 A 5.5 5.5 0 0 1 12.175781 16.166016 C 11.901338 16.341588 11.62221 16.507917 11.337891 16.658203 C 11.256766 16.227504 11.025347 15.85165 10.701172 15.578125 C 11.402546 15.214611 12.063112 14.769393 12.664062 14.246094 C 12.693775 14.389315 12.742903 14.525801 12.804688 14.654297 A 5.5 5.5 0 0 1 13.275391 13.990234 A 1.25 1.2446897 0 0 1 13.25 13.869141 A 1.25 1.2446897 0 0 1 14.5 12.625 A 1.25 1.2446897 0 0 1 14.853516 12.693359 A 5.5 5.5 0 0 1 15.582031 12.359375 C 15.274481 12.13761 14.904434 12 14.5 12 C 14.49416 12 14.488622 12.001903 14.482422 12.001953 C 14.71871 11.428441 14.932684 10.845906 15.123047 10.253906 C 15.433647 10.534919 15.835257 10.710875 16.277344 10.734375 C 16.103434 11.270733 15.908451 11.796384 15.699219 12.316406 A 5.5 5.5 0 0 1 17.5 12 A 5.5 5.5 0 0 1 21.765625 14.03125 A 10 10 0 0 0 22 12 A 10 10 0 0 0 12 2 z M 8.5839844 4.0410156 L 8.7246094 4.0527344 C 8.5857305 5.7229577 8.5597237 7.3445332 8.6210938 8.9179688 C 8.5010559 8.8937188 8.3767129 8.8789062 8.25 8.8789062 C 7.9314003 8.8789073 7.6352934 8.9687033 7.3710938 9.1113281 C 7.3107248 7.6518956 7.3401134 6.1548581 7.4414062 4.6367188 A 8.6874997 8.6874997 0 0 1 8.5839844 4.0410156 z M 16.121094 4.3710938 A 8.6874997 8.6874997 0 0 1 17.339844 5.1738281 C 17.29469 5.8451585 17.228741 6.5106813 17.126953 7.1679688 C 16.895492 7.0651449 16.642562 7.0039062 16.375 7.0039062 C 16.198975 7.0039062 16.031302 7.0396875 15.869141 7.0859375 C 16.012605 6.1942544 16.096954 5.2887118 16.121094 4.3710938 z M 4.5488281 7.5878906 C 5.3828672 8.1591231 6.2336417 8.7254774 7.1074219 9.2792969 C 6.6658843 9.6225585 6.3748 10.153251 6.375 10.75 C 6.374912 11.016813 6.4363126 11.26955 6.5390625 11.5 C 5.4561626 11.954209 4.4106023 12.496191 3.4042969 13.140625 A 8.6874997 8.6874997 0 0 1 3.3144531 12 A 8.6874997 8.6874997 0 0 1 3.3359375 11.736328 C 4.2816511 11.166136 5.2459739 10.654555 6.2480469 10.240234 C 5.4694227 9.7413953 4.7203942 9.2320787 3.984375 8.7226562 A 8.6874997 8.6874997 0 0 1 4.5488281 7.5878906 z M 16.375 7.6289062 A 1.25 1.2446897 0 0 1 17.625 8.875 A 1.25 1.2446897 0 0 1 16.375 10.119141 A 1.25 1.2446897 0 0 1 15.125 8.875 A 1.25 1.2446897 0 0 1 16.375 7.6289062 z M 19.628906 7.8789062 A 8.6874997 8.6874997 0 0 1 20.173828 9.1074219 C 19.520537 9.1323619 18.856777 9.1491069 18.21875 9.1855469 C 18.236 9.084334 18.250037 8.9808749 18.25 8.875 C 18.250112 8.5364623 18.15255 8.2222524 17.992188 7.9472656 C 18.528758 7.9153357 19.083526 7.9018762 19.628906 7.8789062 z M 14.621094 8.2324219 C 14.545969 8.4336847 14.499925 8.6488752 14.5 8.875 C 14.499875 9.0948878 14.545938 9.3034252 14.617188 9.5 C 13.043364 9.6844878 11.523943 9.9426461 10.066406 10.310547 C 9.9554696 9.8594842 9.6838585 9.4686622 9.3105469 9.2109375 C 11.015257 8.749713 12.787508 8.4411847 14.621094 8.2324219 z M 8.25 9.5039062 A 1.25 1.2446897 0 0 1 9.5 10.75 A 1.25 1.2446897 0 0 1 8.25 11.994141 A 1.25 1.2446897 0 0 1 7 10.75 A 1.25 1.2446897 0 0 1 8.25 9.5039062 z M 10.095703 11.037109 C 11.102865 11.585484 12.133999 12.088691 13.1875 12.541016 C 12.885937 12.837652 12.691031 13.237334 12.644531 13.677734 C 11.563932 13.21446 10.512917 12.696637 9.4882812 12.140625 C 9.8067439 11.858237 10.026583 11.473459 10.095703 11.037109 z M 8.9824219 12.466797 C 9.1389967 13.390784 9.3303565 14.291789 9.5976562 15.140625 C 9.5647763 15.138025 9.53337 15.128906 9.5 15.128906 C 9.0889754 15.128906 8.7092872 15.268219 8.3984375 15.496094 C 8.0970258 14.54192 7.8589312 13.549895 7.6914062 12.521484 C 7.8695812 12.578244 8.0542002 12.619141 8.25 12.619141 C 8.5098377 12.619141 8.7562971 12.564047 8.9824219 12.466797 z M 9.5 15.753906 A 1.25 1.2446897 0 0 1 10.75 17 A 1.25 1.2446897 0 0 1 9.5 18.244141 A 1.25 1.2446897 0 0 1 8.25 17 A 1.25 1.2446897 0 0 1 9.5 15.753906 z M 7.6601562 16.679688 C 7.6419063 16.783961 7.624963 16.89075 7.625 17 C 7.6248881 17.3339 7.7226065 17.643629 7.8789062 17.916016 C 7.7092935 17.956485 7.5318843 18.018484 7.3652344 18.052734 C 6.8870649 18.150995 6.4377364 18.209209 5.9960938 18.261719 A 8.6874997 8.6874997 0 0 1 4.9707031 17.099609 C 5.6251266 17.058774 6.3358442 16.986414 7.1152344 16.826172 C 7.2932723 16.789563 7.4790815 16.725316 7.6601562 16.679688 z M 10.929688 18.189453 C 11.176728 18.62762 11.983315 20.134357 12.347656 20.660156 A 8.6874997 8.6874997 0 0 1 12 20.6875 A 8.6874997 8.6874997 0 0 1 10.84375 20.595703 C 10.455027 19.930685 10.023866 19.150312 9.8398438 18.835938 C 10.276231 18.754826 10.653975 18.518065 10.929688 18.189453 z " />
  <path
     id="path981"
     style="fill:#808080;fill-opacity:1;fill-rule:evenodd;stroke-width:0.5;stroke-linecap:round;stroke-linejoin:round"
     d="m 17.5,13 c -2.485279,0 -4.5,2.014721 -4.5,4.5 0,2.485279 2.014721,4.5 4.5,4.5 2.485279,0 4.5,-2.014721 4.5,-4.5 0,-2.485279 -2.014721,-4.5 -4.5,-4.5 z m -1.646484,2.146484 1.646484,1.646485 1.646484,-1.646485 0.707032,0.707032 -1.646485,1.646484 1.646485,1.646484 -0.707032,0.707032 -1.646484,-1.646485 -1.646484,1.646485 -0.707032,-0.707032 1.646485,-1.646484 -1.646485,-1.646484 z" />
</svg>

<svg height="24" width="24" xmlns="http://www.w3.org/2000/svg"><path style="fill:gray;stroke:none;stroke-width:2;stroke-linecap:square;stroke-linejoin:round" d="M12 2A10 10 0 0 0 2 12a10 10 0 0 0 10 10 10 10 0 0 0 2.043-.236A5.5 5.5 0 0 1 12 17.5a5.5 5.5 0 0 1 .176-1.334c-.275.176-.554.342-.838.492a1.866 1.866 0 0 0-.637-1.08 9.98 9.98 0 0 0 1.963-1.332c.03.143.079.28.14.408a5.5 5.5 0 0 1 .471-.664 1.25 1.245 0 0 1-.025-.12 1.25 1.245 0 0 1 1.25-1.245 1.25 1.245 0 0 1 .354.068 5.5 5.5 0 0 1 .728-.334A1.843 1.843 0 0 0 14.5 12l-.018.002c.237-.574.45-1.156.641-1.748.31.28.712.457 1.154.48a24.391 24.391 0 0 1-.578 1.582A5.5 5.5 0 0 1 17.5 12a5.5 5.5 0 0 1 4.266 2.031A10 10 0 0 0 22 12 10 10 0 0 0 12 2zM8.584 4.041l.14.012a39.866 39.866 0 0 0-.103 4.865 1.875 1.875 0 0 0-.371-.04c-.319 0-.615.09-.879.233a41.98 41.98 0 0 1 .07-4.474 8.687 8.687 0 0 1 1.143-.596zm7.537.33a8.687 8.687 0 0 1 1.219.803 23.203 23.203 0 0 1-.213 1.994 1.846 1.846 0 0 0-.752-.164c-.176 0-.344.036-.506.082.144-.892.228-1.797.252-2.715zM4.55 7.588a86.053 86.053 0 0 0 2.558 1.691 1.865 1.865 0 0 0-.732 1.471c0 .267.061.52.164.75a20.487 20.487 0 0 0-3.135 1.64 8.687 8.687 0 0 1-.09-1.14 8.687 8.687 0 0 1 .022-.264c.946-.57 1.91-1.081 2.912-1.496a76.142 76.142 0 0 1-2.264-1.517 8.687 8.687 0 0 1 .565-1.135zm11.826.04a1.25 1.245 0 0 1 1.25 1.247 1.25 1.245 0 0 1-1.25 1.244 1.25 1.245 0 0 1-1.25-1.244 1.25 1.245 0 0 1 1.25-1.246zm3.254.25a8.687 8.687 0 0 1 .545 1.23c-.653.024-1.317.041-1.955.078.017-.102.031-.205.031-.311 0-.339-.097-.653-.258-.928.537-.032 1.092-.045 1.637-.068zm-5.008.354a1.83 1.83 0 0 0-.121.643c0 .22.046.428.117.625a35.472 35.472 0 0 0-4.55.81 1.883 1.883 0 0 0-.756-1.1c1.704-.46 3.477-.769 5.31-.978zM8.25 9.504A1.25 1.245 0 0 1 9.5 10.75a1.25 1.245 0 0 1-1.25 1.244A1.25 1.245 0 0 1 7 10.75a1.25 1.245 0 0 1 1.25-1.246zm1.846 1.533a36.969 36.969 0 0 0 3.091 1.504 1.865 1.865 0 0 0-.542 1.137 38.102 38.102 0 0 1-3.157-1.537c.319-.283.539-.668.608-1.104zm-1.114 1.43c.157.924.348 1.825.616 2.674-.033-.003-.065-.012-.098-.012-.411 0-.79.14-1.102.367a21.162 21.162 0 0 1-.707-2.975c.179.057.363.098.559.098.26 0 .506-.055.732-.152zm.518 3.287A1.25 1.245 0 0 1 10.75 17a1.25 1.245 0 0 1-1.25 1.244A1.25 1.245 0 0 1 8.25 17a1.25 1.245 0 0 1 1.25-1.246zm-1.84.926a1.852 1.852 0 0 0-.035.32c0 .334.098.644.254.916-.17.04-.347.102-.514.137-.478.098-.927.156-1.369.209A8.687 8.687 0 0 1 4.971 17.1a15.222 15.222 0 0 0 2.144-.274c.178-.036.364-.1.545-.146zm3.27 1.51c.247.438 1.053 1.944 1.418 2.47a8.687 8.687 0 0 1-.348.027 8.687 8.687 0 0 1-1.156-.091c-.389-.665-.82-1.446-1.004-1.76a1.87 1.87 0 0 0 1.09-.647z"/><path style="fill:gray;fill-opacity:1;stroke-width:.5;stroke-linecap:round;stroke-linejoin:round" d="M17.5 13a4.5 4.5 0 1 0 0 9 4.5 4.5 0 0 0 0-9zm-1.646 2.146 1.646 1.647 1.646-1.647.708.708-1.647 1.646 1.647 1.646-.708.708-1.646-1.647-1.646 1.647-.708-.708 1.647-1.646-1.647-1.646z"/></svg>
